X: 246
T: Brendan McMahon's
M:4/4
L:1/8
K:Edor
"Bm"~B3B BAFB|"D"A2FA DAFA|"Bm"~B3B BAFB|"A"ABde "D"fded|
"Bm"~B3B BAFB|"D"A2FA DAFA|"G"~G3E "Bm"F2dB|"D"AFDE "Em"FE E2:|
"G"~G3F GBdB|"D"A2FA DAFA|"G"~G3F GBdB|"D"AFDE "Em"FE EF|
"G"~G3F GBdB|"D"A2FA DAFA|"G"~G3E "Bm"F2dB|"D"AFDE "Em"FE E2:|


